KINDER
CUT[WOLLT IHR WISSEN]
REG[Europa, Mitteleuropa, Deutschland, Rheinland]
KEY[K2239  16  G 3/4]
MEL[1_3_  5__5__6_5_  3__1__
    1_1_  4__2__-7__  1___
    1__  5___6_5_  3__1__
    (1_1_1_)  4__2__-7__  1___ //] >>
FCT[Kinder - Lied, Reigen, Tanz, Nachahmungs - Spiel]
